X: 31983
T: Peddlar's Punch, The
R: reel
M: 4/4
K: Gmajor
|:"G" G2BG DGBG|"F" =F/F/F AF CFAF|"G" G2BG DG Bc|"G" dgfd "C" cAFA|
"G" G2BG DGBG|"F" =F/F/F AF CFAF|"G" GABc "D" d/c/B c/B/A|1 "G" BdcA "G" DGGF:|2 "G" BdcA "G" DGGA||
|:"G" B2ge fdcB|"Dm" A=F F/F/F ABcA|"G" G2ge "D" fd ^cd|"G" gfga "D" gfdc|
"G" Bdge fdcB|"Dm" A=F F/F/F ABcA|"G" GABc "D" de fa|"G" gbag "D" fdcA:|"G" G8||

